src/pages/elements/pictograms/images/07_Angles_1-mobile.svg

<?xml version="1.0" encoding="UTF-8"?>
<svg width="288px" height="288px" viewBox="0 0 288 288" version="1.1" xmlns="http://www.w3.org/2000/svg" xmlns:xlink="http://www.w3.org/1999/xlink">
    <!-- Generator: Sketch 52.5 (67469) - http://www.bohemiancoding.com/sketch -->
    <title>Artboard Copy 36</title>
    <desc>Created with Sketch.</desc>
    <g id="Artboard-Copy-36" stroke="none" stroke-width="1" fill="none" fill-rule="evenodd">
        <rect id="Rectangle-3-Copy-31" fill="#FFFFFF" x="0" y="0" width="288" height="288"></rect>
        <g id="Group-20" transform="translate(52.400000, 60.400000)" fill="#000000">
            <path d="M92,48.3683429 C67.942,48.3683429 48.3657143,67.9446286 48.3657143,92.0026286 C48.3657143,116.060629 67.942,135.630343 92,135.630343 C116.058,135.630343 135.634286,116.060629 135.634286,92.0026286 C135.634286,67.9446286 116.058,48.3683429 92,48.3683429 M92,140.368343 C65.3331429,140.368343 43.6342857,118.669486 43.6342857,92.0026286 C43.6342857,65.3292 65.3331429,43.6303429 92,43.6303429 C118.666857,43.6303429 140.365714,65.3292 140.365714,92.0026286 C140.365714,118.669486 118.666857,140.368343 92,140.368343" id="Fill-2"></path>
            <path d="M92,28.6540571 C90.6922857,28.6540571 89.6342857,27.5960571 89.6342857,26.2883429 L89.6342857,6.57405714 C89.6342857,5.25977143 90.6922857,4.20177143 92,4.20177143 C93.3077143,4.20177143 94.3657143,5.25977143 94.3657143,6.57405714 L94.3657143,26.2883429 C94.3657143,27.5960571 93.3077143,28.6540571 92,28.6540571" id="Fill-4"></path>
            <path d="M45.5314571,47.8998 C44.9268857,47.8998 44.3223143,47.6698 43.8623143,47.2098 L29.9243143,33.2652286 C28.9977429,32.3452286 28.9977429,30.8403714 29.9243143,29.9203714 C30.8443143,28.9938 32.3426,28.9938 33.2626,29.9203714 L47.2006,43.8583714 C48.1271714,44.7783714 48.1271714,46.2832286 47.2006,47.2098 C46.7406,47.6698 46.1360286,47.8998 45.5314571,47.8998" id="Fill-6"></path>
            <path d="M26.2857143,94.3683429 L6.57142857,94.3683429 C5.26371429,94.3683429 4.20571429,93.3103429 4.20571429,92.0026286 C4.20571429,90.6883429 5.26371429,89.6303429 6.57142857,89.6303429 L26.2857143,89.6303429 C27.5934286,89.6303429 28.6514286,90.6883429 28.6514286,92.0026286 C28.6514286,93.3103429 27.5934286,94.3683429 26.2857143,94.3683429" id="Fill-8"></path>
            <path d="M31.5928,154.774886 C30.9882286,154.774886 30.3836571,154.544886 29.9236571,154.084886 C28.9970857,153.158314 28.9970857,151.653457 29.9236571,150.733457 L43.8616571,136.795457 C44.7816571,135.868886 46.2799429,135.868886 47.1999429,136.795457 C48.1265143,137.715457 48.1265143,139.220314 47.1999429,140.140314 L33.2619429,154.084886 C32.8019429,154.544886 32.1973714,154.774886 31.5928,154.774886" id="Fill-10"></path>
            <path d="M92,179.796914 C90.6922857,179.796914 89.6342857,178.738914 89.6342857,177.4312 L89.6342857,157.716914 C89.6342857,156.402629 90.6922857,155.344629 92,155.344629 C93.3077143,155.344629 94.3657143,156.402629 94.3657143,157.716914 L94.3657143,177.4312 C94.3657143,178.738914 93.3077143,179.796914 92,179.796914" id="Fill-12"></path>
            <path d="M152.4072,154.774886 C151.802629,154.774886 151.198057,154.544886 150.738057,154.084886 L136.800057,140.140314 C135.873486,139.220314 135.873486,137.715457 136.800057,136.795457 C137.720057,135.868886 139.218343,135.868886 140.138343,136.795457 L154.076343,150.733457 C155.002914,151.653457 155.002914,153.158314 154.076343,154.084886 C153.616343,154.544886 153.011771,154.774886 152.4072,154.774886" id="Fill-14"></path>
            <path d="M177.428571,94.3683429 L157.714286,94.3683429 C156.406571,94.3683429 155.348571,93.3103429 155.348571,92.0026286 C155.348571,90.6883429 156.406571,89.6303429 157.714286,89.6303429 L177.428571,89.6303429 C178.736286,89.6303429 179.794286,90.6883429 179.794286,92.0026286 C179.794286,93.3103429 178.736286,94.3683429 177.428571,94.3683429" id="Fill-16"></path>
            <path d="M138.468543,47.8998 C137.863971,47.8998 137.2594,47.6698 136.7994,47.2098 C135.872829,46.2832286 135.872829,44.7783714 136.7994,43.8583714 L150.7374,29.9203714 C151.6574,28.9938 153.155686,28.9938 154.075686,29.9203714 C155.002257,30.8403714 155.002257,32.3452286 154.075686,33.2652286 L140.137686,47.2098 C139.677686,47.6698 139.073114,47.8998 138.468543,47.8998" id="Fill-18"></path>
        </g>
        <g id="Group-51" transform="translate(44.000000, 52.000000)" stroke="#6EA6FF">
            <g id="Group-5-Copy">
                <path d="M100.365417,0 L100.365417,200.730834" id="Path-3"></path>
                <path d="M100.365417,-1.32181461e-12 L100.365417,200.730834" id="Path-3" transform="translate(100.365417, 100.365417) rotate(45.000000) translate(-100.365417, -100.365417) "></path>
                <path d="M100.365417,1.14251548e-14 L100.365417,200.730834" id="Path-3" transform="translate(100.365417, 100.365417) rotate(90.000000) translate(-100.365417, -100.365417) "></path>
                <path d="M100.365417,-2.64084352e-12 L100.365417,200.730834" id="Path-3" transform="translate(100.365417, 100.365417) rotate(135.000000) translate(-100.365417, -100.365417) "></path>
            </g>
            <g id="Group-12-Copy" opacity="0.400000006" transform="translate(3.241935, 3.241935)">
                <path d="M97.169066,-3.19635085 L97.169066,197.534483" id="Path-3" transform="translate(97.169066, 97.169066) rotate(15.000000) translate(-97.169066, -97.169066) "></path>
                <path d="M97.169066,-3.19635085 L97.169066,197.534483" id="Path-3" transform="translate(97.169066, 97.169066) rotate(30.000000) translate(-97.169066, -97.169066) "></path>
                <path d="M97.169066,-3.19635085 L97.169066,197.534483" id="Path-3" transform="translate(97.169066, 97.169066) rotate(60.000000) translate(-97.169066, -97.169066) "></path>
                <path d="M97.169066,-3.19635085 L97.169066,197.534483" id="Path-3" transform="translate(97.169066, 97.169066) rotate(75.000000) translate(-97.169066, -97.169066) "></path>
                <path d="M97.169066,-3.19635085 L97.169066,197.534483" id="Path-3" transform="translate(97.169066, 97.169066) rotate(105.000000) translate(-97.169066, -97.169066) "></path>
                <path d="M97.169066,-3.19635085 L97.169066,197.534483" id="Path-3" transform="translate(97.169066, 97.169066) rotate(120.000000) translate(-97.169066, -97.169066) "></path>
                <path d="M97.169066,-3.19635085 L97.169066,197.534483" id="Path-3" transform="translate(97.169066, 97.169066) rotate(150.000000) translate(-97.169066, -97.169066) "></path>
                <path d="M97.169066,-3.19635085 L97.169066,197.534483" id="Path-3" transform="translate(97.169066, 97.169066) rotate(165.000000) translate(-97.169066, -97.169066) "></path>
            </g>
        </g>
        <path d="M141.88,38.664 C139.876,38.664 139,37.068 139,34.332 C139,31.596 139.876,30 141.88,30 C143.884,30 144.76,31.596 144.76,34.332 C144.76,37.068 143.884,38.664 141.88,38.664 Z M141.88,37.788 C143.188,37.788 143.704,36.636 143.704,35.016 L143.704,33.648 C143.704,32.028 143.188,30.876 141.88,30.876 C140.572,30.876 140.056,32.028 140.056,33.648 L140.056,35.016 C140.056,36.636 140.572,37.788 141.88,37.788 Z M148.288,34.128 C147.148,34.128 146.272,33.24 146.272,32.064 C146.272,30.888 147.148,30 148.288,30 C149.428,30 150.304,30.888 150.304,32.064 C150.304,33.24 149.428,34.128 148.288,34.128 Z M148.288,33.36 C149.008,33.36 149.464,32.784 149.464,32.064 C149.464,31.344 149.008,30.768 148.288,30.768 C147.568,30.768 147.112,31.344 147.112,32.064 C147.112,32.784 147.568,33.36 148.288,33.36 Z" id="0°-copy-2" fill="#6F6F6F"></path>
        <path d="M173.952,45.52 L168.444,45.52 L168.444,44.632 L170.784,44.632 L170.784,37.888 L170.7,37.888 L168.588,39.856 L168,39.22 L170.22,37.144 L171.792,37.144 L171.792,44.632 L173.952,44.632 L173.952,45.52 Z M180.564,37.144 L180.564,38.032 L176.892,38.032 L176.652,41.224 L176.736,41.224 C177.132,40.66 177.576,40.3 178.452,40.3 C179.892,40.3 180.948,41.272 180.948,42.892 C180.948,44.524 179.892,45.664 178.128,45.664 C176.736,45.664 176.016,44.956 175.512,44.236 L176.268,43.66 C176.7,44.32 177.12,44.764 178.128,44.764 C179.268,44.764 179.88,44.128 179.88,43.024 L179.88,42.904 C179.88,41.8 179.268,41.164 178.128,41.164 C177.36,41.164 176.976,41.488 176.628,41.872 L175.776,41.752 L176.076,37.144 L180.564,37.144 Z M184.596,41.128 C183.456,41.128 182.58,40.24 182.58,39.064 C182.58,37.888 183.456,37 184.596,37 C185.736,37 186.612,37.888 186.612,39.064 C186.612,40.24 185.736,41.128 184.596,41.128 Z M184.596,40.36 C185.316,40.36 185.772,39.784 185.772,39.064 C185.772,38.344 185.316,37.768 184.596,37.768 C183.876,37.768 183.42,38.344 183.42,39.064 C183.42,39.784 183.876,40.36 184.596,40.36 Z" id="15°-copy-2" fill="#6F6F6F"></path>
        <path d="M200.716,53.696 L201.628,53.696 C202.756,53.696 203.332,53.108 203.332,52.304 L203.332,52.22 C203.332,51.344 202.72,50.9 201.832,50.9 C200.968,50.9 200.452,51.308 200.104,51.944 L199.36,51.368 C199.78,50.696 200.512,50 201.856,50 C203.272,50 204.4,50.756 204.4,52.112 C204.4,53.192 203.68,53.84 202.792,54.068 L202.792,54.116 C203.692,54.296 204.556,54.968 204.556,56.228 C204.556,57.668 203.416,58.664 201.712,58.664 C200.26,58.664 199.516,57.956 199,57.236 L199.756,56.66 C200.188,57.32 200.68,57.764 201.7,57.764 C202.876,57.764 203.5,57.2 203.5,56.216 L203.5,56.12 C203.5,55.136 202.876,54.572 201.7,54.572 L200.716,54.572 L200.716,53.696 Z M209.296,58.664 C207.292,58.664 206.416,57.068 206.416,54.332 C206.416,51.596 207.292,50 209.296,50 C211.3,50 212.176,51.596 212.176,54.332 C212.176,57.068 211.3,58.664 209.296,58.664 Z M209.296,57.788 C210.604,57.788 211.12,56.636 211.12,55.016 L211.12,53.648 C211.12,52.028 210.604,50.876 209.296,50.876 C207.988,50.876 207.472,52.028 207.472,53.648 L207.472,55.016 C207.472,56.636 207.988,57.788 209.296,57.788 Z M215.704,54.128 C214.564,54.128 213.688,53.24 213.688,52.064 C213.688,50.888 214.564,50 215.704,50 C216.844,50 217.72,50.888 217.72,52.064 C217.72,53.24 216.844,54.128 215.704,54.128 Z M215.704,53.36 C216.424,53.36 216.88,52.784 216.88,52.064 C216.88,51.344 216.424,50.768 215.704,50.768 C214.984,50.768 214.528,51.344 214.528,52.064 C214.528,52.784 214.984,53.36 215.704,53.36 Z" id="30°-copy-2" fill="#6F6F6F"></path>
        <path d="M229.004,78.52 L228.044,78.52 L228.044,76.876 L224,76.876 L224,75.988 L227.504,70.144 L229.004,70.144 L229.004,76.036 L230.216,76.036 L230.216,76.876 L229.004,76.876 L229.004,78.52 Z M227.984,70.924 L224.948,76.036 L228.044,76.036 L228.044,70.924 L227.984,70.924 Z M236.72,70.144 L236.72,71.032 L233.048,71.032 L232.808,74.224 L232.892,74.224 C233.288,73.66 233.732,73.3 234.608,73.3 C236.048,73.3 237.104,74.272 237.104,75.892 C237.104,77.524 236.048,78.664 234.284,78.664 C232.892,78.664 232.172,77.956 231.668,77.236 L232.424,76.66 C232.856,77.32 233.276,77.764 234.284,77.764 C235.424,77.764 236.036,77.128 236.036,76.024 L236.036,75.904 C236.036,74.8 235.424,74.164 234.284,74.164 C233.516,74.164 233.132,74.488 232.784,74.872 L231.932,74.752 L232.232,70.144 L236.72,70.144 Z M240.752,74.128 C239.612,74.128 238.736,73.24 238.736,72.064 C238.736,70.888 239.612,70 240.752,70 C241.892,70 242.768,70.888 242.768,72.064 C242.768,73.24 241.892,74.128 240.752,74.128 Z M240.752,73.36 C241.472,73.36 241.928,72.784 241.928,72.064 C241.928,71.344 241.472,70.768 240.752,70.768 C240.032,70.768 239.576,71.344 239.576,72.064 C239.576,72.784 240.032,73.36 240.752,73.36 Z" id="45°-copy-2" fill="#6F6F6F"></path>
    </g>
</svg>

<svg xmlns="http://www.w3.org/2000/svg" viewBox="0 0 288 288"><g fill="none" fill-rule="evenodd"><path fill="#FFF" d="M0 0h288v288H0z"/><path d="M144.4 108.768c-24.058 0-43.634 19.577-43.634 43.635 0 24.058 19.576 43.627 43.634 43.627s43.634-19.57 43.634-43.627c0-24.058-19.576-43.635-43.634-43.635m0 92c-26.667 0-48.366-21.699-48.366-48.365 0-26.674 21.7-48.373 48.366-48.373 26.667 0 48.366 21.7 48.366 48.373 0 26.666-21.7 48.365-48.366 48.365m0-111.714a2.364 2.364 0 01-2.366-2.366V66.974a2.366 2.366 0 114.732 0v19.714a2.364 2.364 0 01-2.366 2.366M97.931 108.3c-.604 0-1.209-.23-1.669-.69L82.324 93.665a2.36 2.36 0 010-3.345 2.352 2.352 0 013.339 0L99.6 104.258a2.368 2.368 0 01-1.67 4.042m-19.244 46.468H58.97a2.364 2.364 0 01-2.365-2.365 2.366 2.366 0 012.365-2.373h19.715a2.366 2.366 0 012.365 2.373 2.364 2.364 0 01-2.365 2.365m5.308 60.407a2.368 2.368 0 01-1.67-4.041l13.939-13.939a2.352 2.352 0 013.338 0 2.36 2.36 0 010 3.345l-13.938 13.945c-.46.46-1.065.69-1.67.69m60.408 25.022a2.364 2.364 0 01-2.366-2.366v-19.714a2.366 2.366 0 114.732 0v19.714a2.364 2.364 0 01-2.366 2.366m60.407-25.022c-.604 0-1.209-.23-1.669-.69L189.2 200.54a2.36 2.36 0 010-3.345 2.352 2.352 0 013.338 0l13.938 13.938a2.368 2.368 0 01-1.669 4.042m25.022-60.407h-19.715a2.364 2.364 0 01-2.365-2.365 2.366 2.366 0 012.365-2.373h19.715a2.366 2.366 0 012.365 2.373 2.364 2.364 0 01-2.365 2.365m-38.96-46.468a2.368 2.368 0 01-1.67-4.041l13.938-13.939a2.352 2.352 0 013.339 0 2.36 2.36 0 010 3.345l-13.938 13.945c-.46.46-1.065.69-1.67.69" fill="#000"/><g stroke="#6EA6FF"><path d="M144.365 52v200.73m70.969-171.334L73.396 223.334m171.334-70.969H44m171.334 70.969L73.396 81.396"/><path d="M170.387 55.465l-51.952 193.892m76.159-183.865L94.228 239.33M231.33 102.228L57.492 202.594m183.865-76.159L47.465 178.387m193.892 0L47.465 126.435m183.865 76.159L57.492 102.228M194.594 239.33L94.228 65.492m76.159 183.865L118.435 55.465" opacity=".4"/></g><path d="M141.88 38.664c-2.004 0-2.88-1.596-2.88-4.332 0-2.736.876-4.332 2.88-4.332s2.88 1.596 2.88 4.332c0 2.736-.876 4.332-2.88 4.332zm0-.876c1.308 0 1.824-1.152 1.824-2.772v-1.368c0-1.62-.516-2.772-1.824-2.772s-1.824 1.152-1.824 2.772v1.368c0 1.62.516 2.772 1.824 2.772zm6.408-3.66c-1.14 0-2.016-.888-2.016-2.064 0-1.176.876-2.064 2.016-2.064 1.14 0 2.016.888 2.016 2.064 0 1.176-.876 2.064-2.016 2.064zm0-.768c.72 0 1.176-.576 1.176-1.296 0-.72-.456-1.296-1.176-1.296s-1.176.576-1.176 1.296c0 .72.456 1.296 1.176 1.296zm25.664 12.16h-5.508v-.888h2.34v-6.744h-.084l-2.112 1.968-.588-.636 2.22-2.076h1.572v7.488h2.16v.888zm6.612-8.376v.888h-3.672l-.24 3.192h.084c.396-.564.84-.924 1.716-.924 1.44 0 2.496.972 2.496 2.592 0 1.632-1.056 2.772-2.82 2.772-1.392 0-2.112-.708-2.616-1.428l.756-.576c.432.66.852 1.104 1.86 1.104 1.14 0 1.752-.636 1.752-1.74v-.12c0-1.104-.612-1.74-1.752-1.74-.768 0-1.152.324-1.5.708l-.852-.12.3-4.608h4.488zm4.032 3.984c-1.14 0-2.016-.888-2.016-2.064 0-1.176.876-2.064 2.016-2.064 1.14 0 2.016.888 2.016 2.064 0 1.176-.876 2.064-2.016 2.064zm0-.768c.72 0 1.176-.576 1.176-1.296 0-.72-.456-1.296-1.176-1.296s-1.176.576-1.176 1.296c0 .72.456 1.296 1.176 1.296zm16.12 13.336h.912c1.128 0 1.704-.588 1.704-1.392v-.084c0-.876-.612-1.32-1.5-1.32-.864 0-1.38.408-1.728 1.044l-.744-.576c.42-.672 1.152-1.368 2.496-1.368 1.416 0 2.544.756 2.544 2.112 0 1.08-.72 1.728-1.608 1.956v.048c.9.18 1.764.852 1.764 2.112 0 1.44-1.14 2.436-2.844 2.436-1.452 0-2.196-.708-2.712-1.428l.756-.576c.432.66.924 1.104 1.944 1.104 1.176 0 1.8-.564 1.8-1.548v-.096c0-.984-.624-1.548-1.8-1.548h-.984v-.876zm8.58 4.968c-2.004 0-2.88-1.596-2.88-4.332 0-2.736.876-4.332 2.88-4.332s2.88 1.596 2.88 4.332c0 2.736-.876 4.332-2.88 4.332zm0-.876c1.308 0 1.824-1.152 1.824-2.772v-1.368c0-1.62-.516-2.772-1.824-2.772s-1.824 1.152-1.824 2.772v1.368c0 1.62.516 2.772 1.824 2.772zm6.408-3.66c-1.14 0-2.016-.888-2.016-2.064 0-1.176.876-2.064 2.016-2.064 1.14 0 2.016.888 2.016 2.064 0 1.176-.876 2.064-2.016 2.064zm0-.768c.72 0 1.176-.576 1.176-1.296 0-.72-.456-1.296-1.176-1.296s-1.176.576-1.176 1.296c0 .72.456 1.296 1.176 1.296zm13.3 25.16h-.96v-1.644H224v-.888l3.504-5.844h1.5v5.892h1.212v.84h-1.212v1.644zm-1.02-7.596l-3.036 5.112h3.096v-5.112h-.06zm8.736-.78v.888h-3.672l-.24 3.192h.084c.396-.564.84-.924 1.716-.924 1.44 0 2.496.972 2.496 2.592 0 1.632-1.056 2.772-2.82 2.772-1.392 0-2.112-.708-2.616-1.428l.756-.576c.432.66.852 1.104 1.86 1.104 1.14 0 1.752-.636 1.752-1.74v-.12c0-1.104-.612-1.74-1.752-1.74-.768 0-1.152.324-1.5.708l-.852-.12.3-4.608h4.488zm4.032 3.984c-1.14 0-2.016-.888-2.016-2.064 0-1.176.876-2.064 2.016-2.064 1.14 0 2.016.888 2.016 2.064 0 1.176-.876 2.064-2.016 2.064zm0-.768c.72 0 1.176-.576 1.176-1.296 0-.72-.456-1.296-1.176-1.296s-1.176.576-1.176 1.296c0 .72.456 1.296 1.176 1.296z" fill="#6F6F6F"/></g></svg>
